images/icons/Iconheart.svg

<svg width="26" height="19" viewBox="0 0 26 19" fill="none" xmlns="http://www.w3.org/2000/svg">
<path d="M7.25 0.5625C3.77393 0.5625 0.8125 3.16163 0.8125 6.53724C0.8125 8.86594 1.90293 10.8265 3.34811 12.4505C4.78833 14.069 6.64643 15.4275 8.32622 16.5645L11.2245 18.5264C11.5419 18.7412 11.9581 18.7412 12.2755 18.5264L15.1738 16.5646C15.7109 16.201 16.2663 15.8147 16.8204 15.4046C16.9653 15.2973 17.0115 15.1015 16.9315 14.9399L15.2279 11.501C15.1475 11.3386 14.9264 11.3131 14.8111 11.4529L14.7201 11.5632C14.2452 12.1388 13.5379 12.4722 12.7917 12.4722H10.5C9.11929 12.4722 8 11.3529 8 9.97222C8 8.59151 9.11929 7.47222 10.5 7.47222H11.3775C11.5268 7.47222 11.6682 7.40554 11.7632 7.29041L13.7278 4.90904C14.2757 4.24495 15.1267 3.90948 15.9804 4.0211C16.834 4.13272 17.5702 4.67572 17.9289 5.45836L18.9323 7.64757C19.0376 7.87723 19.3368 7.93846 19.5551 7.81129C19.9266 7.59488 20.3572 7.47222 20.8125 7.47222H22.298C22.4868 7.47222 22.6472 7.332 22.6626 7.14389C22.679 6.94451 22.6875 6.74231 22.6875 6.53724C22.6875 3.16163 19.7261 0.5625 16.25 0.5625C14.4582 0.5625 12.8814 1.40267 11.75 2.48979C10.6186 1.40267 9.04184 0.5625 7.25 0.5625Z" fill="black"/>
<path d="M16.5085 6.10939C16.374 5.8159 16.0979 5.61227 15.7778 5.57041C15.4577 5.52855 15.1385 5.65436 14.9331 5.90339L12.3497 9.03472H10.5C9.98223 9.03472 9.5625 9.45445 9.5625 9.97222C9.5625 10.49 9.98223 10.9097 10.5 10.9097H12.7917C13.0715 10.9097 13.3367 10.7847 13.5148 10.5688L15.4273 8.25063L17.6686 13.1406C17.8031 13.4341 18.0792 13.6377 18.3993 13.6796C18.7194 13.7214 19.0385 13.5956 19.244 13.3466L21.2544 10.9097H24.25C24.7678 10.9097 25.1875 10.49 25.1875 9.97222C25.1875 9.45445 24.7678 9.03472 24.25 9.03472H20.8125C20.5326 9.03472 20.2674 9.15974 20.0893 9.37561L18.7497 10.9994L16.5085 6.10939Z" fill="black"/>
</svg>

<svg width="26" height="19" fill="none" xmlns="http://www.w3.org/2000/svg"><path d="M7.25.563C3.774.563.812 3.162.812 6.537c0 2.329 1.09 4.29 2.536 5.913 1.44 1.619 3.298 2.978 4.978 4.114l2.899 1.962a.938.938 0 0 0 1.05 0l2.899-1.961c.537-.364 1.092-.75 1.646-1.16a.372.372 0 0 0 .111-.465L15.229 11.5a.25.25 0 0 0-.417-.048l-.09.11a2.5 2.5 0 0 1-1.93.91H10.5a2.5 2.5 0 0 1 0-5h.877a.5.5 0 0 0 .386-.183l1.965-2.381a2.5 2.5 0 0 1 4.2.55l1.004 2.189c.106.23.405.29.623.163.372-.216.802-.339 1.258-.339h1.485c.189 0 .35-.14.365-.328.016-.2.024-.402.024-.607 0-3.375-2.96-5.974-6.437-5.974-1.792 0-3.369.84-4.5 1.927C10.619 1.403 9.042.562 7.25.562Z" fill="#000"/><path d="M16.509 6.11a.938.938 0 0 0-1.576-.207L12.35 9.035H10.5a.937.937 0 1 0 0 1.875h2.292c.28 0 .545-.125.723-.341l1.912-2.318 2.242 4.89a.938.938 0 0 0 1.575.206l2.01-2.437h2.996a.937.937 0 1 0 0-1.875h-3.438a.938.938 0 0 0-.723.34L18.75 11l-2.24-4.89Z" fill="#000"/></svg>
